dist/img/svg/i-company-3.svg

<svg width="24" height="24" viewBox="0 0 24 24" fill="none" xmlns="http://www.w3.org/2000/svg">
    <path d="M12 2V4C7.04128 4 3 8.04128 3 13C3 17.9587 7.04128 22 12 22C16.9587 22 21 17.9587 21 13H23C23 6.96045 18.0395 2 12 2ZM12 6V8C14.7965 8 17 10.2035 17 13H19C19 16.8778 15.8778 20 12 20C8.12216 20 5 16.8778 5 13C5 9.12216 8.12216 6 12 6ZM12 10C10.343 10 9 11.343 9 13C9 14.657 10.343 16 12 16C13.657 16 15 14.657 15 13C15 11.343 13.657 10 12 10ZM12 12C12.551 12 13 12.449 13 13C13 13.551 12.551 14 12 14C11.449 14 11 13.551 11 13C11 12.449 11.449 12 12 12Z" fill="white"/>
</svg>

<svg width="24" height="24" viewBox="0 0 24 24" fill="none" xmlns="http://www.w3.org/2000/svg"><path d="M12 2v2c-4.959 0-9 4.041-9 9s4.041 9 9 9 9-4.041 9-9h2c0-6.04-4.96-11-11-11zm0 4v2c2.796 0 5 2.204 5 5h2c0 3.878-3.122 7-7 7s-7-3.122-7-7 3.122-7 7-7zm0 4a3 3 0 100 6 3 3 0 000-6zm0 2c.551 0 1 .449 1 1 0 .551-.449 1-1 1-.551 0-1-.449-1-1 0-.551.449-1 1-1z" fill="#fff"/></svg>
